X:1391
T:CURRAGH2- The Winter it is past, or Curragh of Kildare
O:england
S:Petrie's 'Ancient Music of Ireland', 1855
Q:1/4=120
L:1/8
M:4/4
K:Fmixolydian
F|FD FGB2e3/2d/|cB G3/2F/F2AB|c2def2ed|(c4c2)cd|ec de f2 ed|\
cB GFF2FG|B2ed cB G3/2F/|(F4F2)cd|ec def2ed|cB GFF2FG|\
B2ed cB G3/2F/|(F4F3)|]


